X:1
T:Ode an die Freude
T:Ludwig van Beethoven
T:Friedrich Schiller
%%score ( 1 2 )
L:1/8
M:4/4
K:G
V:1 treble nm="Voice"
V:2 treble 
V:1
 B2 B2 c2 d2 | d2 c2 B2 A2 | G2 G2 A2 B2 |1 B3 A A4 :|2 A3 G G4 || A2 A2 B2 G2 | A2 Bc B2 G2 | %7
w: |||||||
w: |||||||
 A2 Bc B2 A2 | G2 A2 D2 B2- | B2 B2 c2 d2 | d2 c2 B2 A2 | G2 G2 A2 B2 | A3 G G4 |] %13
w: |* * * Al-|* le Menn- schen|wer- den Brü- der,|wo dein sanf- ter|Flü- gel weilt.|
w: ||Al- le * *||||
V:2
 G2 G2 A2 B2 | B2 A2 G2 D2 | B,2 B,2 D2 G2 |1 G3 D D4 :|2 D3 G G4 || D2 D2 G2 B,2 | D2 GA G2 B,2 | %7
w: Freu- de, schö- ner|Göt- ter- fun- ken,|Toch- ter aus E-|ly- si- um,|Hei- lig- tum!|Dei- ne Zau- ber|bin- den _ wie- der|
w: wir be- tre- ten|feu- er- trun- ken,|Himm- li- sche, dein|||||
 D2 GA G2 F2 | E2 ^C2 D4 | G2 G2 A2 B2 | B2 A2 G2 D2 | B,2 B,2 D2 G2 | D3 G G4 |] %13
w: was die _ Mo- de|streng ge- teilt,|||||
w: ||||||

